packages/components/src/components/icon/common/ic-assets-crypto.svg

<svg width="25" height="24" viewBox="0 0 25 24" fill="none" xmlns="http://www.w3.org/2000/svg">
<path fill-rule="evenodd" clip-rule="evenodd" d="M16.625 0V3.99921C17.6462 4.52658 18.5523 5.243 19.2977 6.1014L20.2143 7.15699L17.0035 10.3679L15.9514 9.11223C15.1236 8.12423 13.8854 7.5 12.5 7.5C10.0147 7.5 8 9.51472 8 12C8 14.4853 10.0147 16.5 12.5 16.5C13.8854 16.5 15.1236 15.8758 15.9514 14.8878L17.0035 13.6321L20.2143 16.843L19.2977 17.8986C18.5523 18.757 17.6462 19.4734 16.625 20.0008V24H12.875V20.9923C12.7506 20.9974 12.6256 21 12.5 21C12.3744 21 12.2494 20.9974 12.125 20.9923V24H8.375V20.0007C5.48107 18.5057 3.5 15.4857 3.5 12C3.5 8.51426 5.48107 5.49429 8.375 3.9993V0H12.125V3.00769C12.2494 3.00258 12.3744 3 12.5 3C12.6256 3 12.7506 3.00258 12.875 3.00769V0H16.625ZM13.625 4.58381C13.3787 4.54677 13.1285 4.5217 12.875 4.50921C12.8254 4.50677 12.7758 4.50482 12.7259 4.50334C12.6509 4.50112 12.5756 4.5 12.5 4.5C12.3743 4.5 12.2492 4.50309 12.125 4.50921C11.8715 4.5217 11.6213 4.54677 11.375 4.58381C11.1208 4.62205 10.8708 4.67304 10.6256 4.73612L10.625 1.5H9.875V4.97221C9.61803 5.06823 9.36773 5.17795 9.125 5.30047C6.67807 6.53558 5 9.07182 5 12C5 14.9282 6.67807 17.4644 9.125 18.6995C9.2741 18.7748 9.42606 18.8452 9.58066 18.9106C9.67775 18.9517 9.77588 18.9908 9.875 19.0278V22.5H10.625V19.2637C10.8704 19.3269 11.1206 19.3779 11.375 19.4162C11.6213 19.4532 11.8715 19.4783 12.125 19.4908C12.2492 19.4969 12.3743 19.5 12.5 19.5C12.5722 19.5 12.6442 19.499 12.7159 19.4969C12.769 19.4954 12.8221 19.4934 12.875 19.4908C13.1285 19.4783 13.3787 19.4532 13.625 19.4162C13.8794 19.3779 14.1296 19.3269 14.375 19.2637V22.5H15.125V19.0278C15.382 18.9318 15.6323 18.8221 15.875 18.6995C16.2991 18.4854 16.7002 18.2323 17.0734 17.9447C17.1901 17.8548 17.304 17.7616 17.4151 17.6651C17.6824 17.433 17.933 17.1824 18.1651 16.9151L17.1011 15.8511C16.8737 16.1226 16.6226 16.3737 16.3511 16.6011C15.3491 17.4407 14.0688 17.9591 12.6686 17.9977C12.6126 17.9992 12.5564 18 12.5 18C12.4675 18 12.435 17.9997 12.4027 17.9992C9.13384 17.9472 6.5 15.2812 6.5 12C6.5 8.72457 9.12459 6.06214 12.3854 6.00107C12.4235 6.00036 12.4617 6 12.5 6C12.5325 6 12.565 6.00026 12.5973 6.00077C14.0253 6.02348 15.3321 6.54506 16.3511 7.39886C16.6226 7.62633 16.8737 7.87738 17.1011 8.14886L18.1651 7.08491C17.933 6.81765 17.6824 6.56696 17.4151 6.33488C17.304 6.23842 17.1901 6.14517 17.0734 6.05528C16.7002 5.76774 16.2991 5.51456 15.875 5.30047C15.6323 5.17795 15.382 5.06823 15.125 4.97221V1.5H14.375V4.73628C14.1296 4.67313 13.8794 4.62208 13.625 4.58381Z" fill="#333333"/>
</svg>

<svg width="25" height="24" fill="none" xmlns="http://www.w3.org/2000/svg"><path fill-rule="evenodd" clip-rule="evenodd" d="M16.625 0v4A9.03 9.03 0 0 1 19.298 6.1l.916 1.056-3.21 3.21-1.053-1.255a4.5 4.5 0 1 0 0 5.776l1.052-1.256 3.211 3.211-.916 1.056A9.03 9.03 0 0 1 16.625 20V24h-3.75v-3.008a9.154 9.154 0 0 1-.75 0V24h-3.75v-4A8.999 8.999 0 0 1 3.5 12a8.998 8.998 0 0 1 4.875-8V0h3.75v3.008a9.136 9.136 0 0 1 .75 0V0h3.75Zm-3 4.584a7.536 7.536 0 0 0-3 .152V1.5h-.75v3.472A7.5 7.5 0 0 0 5 12a7.5 7.5 0 0 0 4.875 7.028V22.5h.75v-3.236a7.459 7.459 0 0 0 2.25.227 7.55 7.55 0 0 0 1.5-.227V22.5h.75v-3.472a7.428 7.428 0 0 0 1.948-1.083 7.51 7.51 0 0 0 1.092-1.03l-1.064-1.064A5.974 5.974 0 0 1 12.403 18 6 6 0 1 1 17.1 8.15l1.064-1.064a7.545 7.545 0 0 0-3.04-2.113V1.5h-.75v3.236a7.464 7.464 0 0 0-.75-.152Z" fill="var(--fill-color1)"/></svg>
